X:119
T:Mrs. MacDonald, Skeabost
R:Reel
S:MacDonald - Skye Collection
N:pg.40
M:C
L:1/8
K:D Mix
g|fd ec d3 (A/B/4c/4)|d2 A2 GF DD|
g2 fd ec d2|1 (A/B/=c) G=F E=C C:|2 (A/B/=c) G=F E=C C2||
(3GFD A2B2A2|(3GFD AG FD D2|(3GFD A2B2A2|(B=c) G=F EC C2|
(3GFD A2B2A2|(3GFD AG FD D2|(3GFD A2B2A2|(B=c) G=F EC C2||
